128/mimes/application-x-apple-diskimage.svg

<?xml version="1.0" encoding="UTF-8" standalone="no"?>
<!-- Created with Inkscape (http://www.inkscape.org/) -->

<svg
   xmlns:dc="http://purl.org/dc/elements/1.1/"
   xmlns:cc="http://creativecommons.org/ns#"
   xmlns:rdf="http://www.w3.org/1999/02/22-rdf-syntax-ns#"
   xmlns:svg="http://www.w3.org/2000/svg"
   xmlns="http://www.w3.org/2000/svg"
   xmlns:sodipodi="http://sodipodi.sourceforge.net/DTD/sodipodi-0.dtd"
   xmlns:inkscape="http://www.inkscape.org/namespaces/inkscape"
   width="128"
   height="128"
   viewBox="0 0 33.866667 33.866667"
   version="1.1"
   id="svg2634"
   inkscape:version="0.92.4 5da689c313, 2019-01-14"
   sodipodi:docname="application-x-apple-diskimage.svg">
  <title
     id="title3250">Boston Icons</title>
  <defs
     id="defs2628">
    <clipPath
       clipPathUnits="userSpaceOnUse"
       id="clipPath5603">
      <path
         style="fill:#00ffff;fill-opacity:1;stroke:none;stroke-width:0.26458335px;stroke-linecap:butt;stroke-linejoin:miter;stroke-opacity:1"
         d="m 61.912499,165.76667 -6.879168,6.87917 6.879168,6.87916 6.879167,-6.87916 z"
         id="path5605"
         inkscape:connector-curvature="0" />
    </clipPath>
    <clipPath
       id="clp12">
      <path
         inkscape:connector-curvature="0"
         d="m 45.315,71.927 h 12.92 v 15.867 h -12.92 z"
         id="path184" />
    </clipPath>
  </defs>
  <sodipodi:namedview
     id="base"
     pagecolor="#ffffff"
     bordercolor="#00ffed"
     borderopacity="1"
     inkscape:pageopacity="1"
     inkscape:pageshadow="2"
     inkscape:zoom="11.2"
     inkscape:cx="80.04367"
     inkscape:cy="39.632178"
     inkscape:document-units="px"
     inkscape:current-layer="layer1"
     showgrid="false"
     showguides="false"
     inkscape:guide-bbox="true"
     fit-margin-top="0"
     fit-margin-left="0"
     fit-margin-right="0"
     fit-margin-bottom="0"
     inkscape:window-width="1920"
     inkscape:window-height="1016"
     inkscape:window-x="0"
     inkscape:window-y="27"
     inkscape:window-maximized="1"
     units="px">
    <inkscape:grid
       type="xygrid"
       id="grid3182"
       spacingx="0.52916667"
       spacingy="0.52916667"
       empspacing="4"
       originx="-82.550004"
       originy="-127.00001"
       dotted="false" />
    <sodipodi:guide
       position="-4.268358e-06,27.516666"
       orientation="1,0"
       id="guide3216"
       inkscape:locked="false" />
    <sodipodi:guide
       position="3.7041618,33.866666"
       orientation="0,1"
       id="guide3218"
       inkscape:locked="false" />
    <sodipodi:guide
       position="33.866657,24.870836"
       orientation="1,0"
       id="guide3220"
       inkscape:locked="false" />
    <sodipodi:guide
       position="32.279157,-4.1479283e-06"
       orientation="0,1"
       id="guide3222"
       inkscape:locked="false" />
    <sodipodi:guide
       position="15.345829,32.808336"
       orientation="0,1"
       id="guide3224"
       inkscape:locked="false" />
    <sodipodi:guide
       position="-4.7625023,1.0583259"
       orientation="0,1"
       id="guide3226"
       inkscape:locked="false" />
    <sodipodi:guide
       position="1.0583287,17.462496"
       orientation="1,0"
       id="guide3228"
       inkscape:locked="false" />
    <sodipodi:guide
       position="32.808327,20.108336"
       orientation="1,0"
       id="guide3230"
       inkscape:locked="false" />
    <sodipodi:guide
       position="15.874995,31.750006"
       orientation="0,1"
       id="guide3232"
       inkscape:locked="false" />
    <sodipodi:guide
       position="2.1166617,24.870836"
       orientation="1,0"
       id="guide3234"
       inkscape:locked="false" />
    <sodipodi:guide
       position="3.1749958,25.400006"
       orientation="1,0"
       id="guide3236"
       inkscape:locked="false" />
    <sodipodi:guide
       position="5.2916633,15.345824"
       orientation="1,0"
       id="guide3238"
       inkscape:locked="false" />
    <sodipodi:guide
       position="28.574997,25.400006"
       orientation="1,0"
       id="guide3240"
       inkscape:locked="false" />
    <sodipodi:guide
       position="30.691657,24.341666"
       orientation="1,0"
       id="guide3242"
       inkscape:locked="false" />
    <sodipodi:guide
       position="31.749997,21.695836"
       orientation="1,0"
       id="guide3244"
       inkscape:locked="false" />
    <sodipodi:guide
       position="21.695827,2.1166659"
       orientation="0,1"
       id="guide3246"
       inkscape:locked="false" />
    <sodipodi:guide
       position="16.404162,3.1749959"
       orientation="0,1"
       id="guide3248"
       inkscape:locked="false" />
    <sodipodi:guide
       position="29.63333,25.399991"
       orientation="0.70710678,0.70710678"
       id="guide850"
       inkscape:locked="false" />
    <sodipodi:guide
       position="26.987497,30.162491"
       orientation="0,1"
       id="guide843"
       inkscape:locked="false" />
    <sodipodi:guide
       position="30.162497,26.458325"
       orientation="0,1"
       id="guide845"
       inkscape:locked="false" />
    <sodipodi:guide
       position="8.9958299,20.637491"
       orientation="1,0"
       id="guide851"
       inkscape:locked="false" />
    <sodipodi:guide
       position="13.229163,23.812491"
       orientation="0,1"
       id="guide853"
       inkscape:locked="false" />
    <sodipodi:guide
       position="24.87083,14.287491"
       orientation="1,0"
       id="guide855"
       inkscape:locked="false" />
    <sodipodi:guide
       position="20.10833,7.9374908"
       orientation="0,1"
       id="guide857"
       inkscape:locked="false" />
    <sodipodi:guide
       position="10.054163,17.462491"
       orientation="1,0"
       id="guide882"
       inkscape:locked="false" />
    <sodipodi:guide
       position="12.699997,22.754158"
       orientation="0,1"
       id="guide884"
       inkscape:locked="false" />
    <sodipodi:guide
       position="23.812497,18.520824"
       orientation="1,0"
       id="guide886"
       inkscape:locked="false" />
    <sodipodi:guide
       position="16.404163,8.9958242"
       orientation="0,1"
       id="guide888"
       inkscape:locked="false" />
    <sodipodi:guide
       position="16.93333,15.874991"
       orientation="0,1"
       id="guide846"
       inkscape:locked="false" />
    <sodipodi:guide
       position="16.93333,15.874991"
       orientation="1,0"
       id="guide848"
       inkscape:locked="false" />
    <sodipodi:guide
       position="16.404163,13.758324"
       orientation="0.70710678,0.70710678"
       id="guide897"
       inkscape:locked="false" />
    <sodipodi:guide
       position="17.462497,13.758324"
       orientation="-0.70710678,0.70710678"
       id="guide899"
       inkscape:locked="false" />
  </sodipodi:namedview>
  <metadata
     id="metadata2631">
    <rdf:RDF>
      <cc:Work
         rdf:about="">
        <dc:format>image/svg+xml</dc:format>
        <dc:type
           rdf:resource="http://purl.org/dc/dcmitype/StillImage" />
        <dc:title>Boston Icons</dc:title>
        <cc:license
           rdf:resource="dribbble.com/chrisdiaz" />
        <dc:creator>
          <cc:Agent>
            <dc:title>Christian Díaz</dc:title>
          </cc:Agent>
        </dc:creator>
        <dc:date>2019</dc:date>
        <dc:publisher>
          <cc:Agent>
            <dc:title>Christian Díaz</dc:title>
          </cc:Agent>
        </dc:publisher>
        <dc:identifier>christiandiaz.design [at] gmail [dot] com</dc:identifier>
        <dc:subject>
          <rdf:Bag>
            <rdf:li>GNOME icon Theme</rdf:li>
          </rdf:Bag>
        </dc:subject>
        <dc:description>diazchris.deviantart.com | dribbble.com/chrisdiaz</dc:description>
      </cc:Work>
    </rdf:RDF>
  </metadata>
  <g
     inkscape:label="Capa 1"
     inkscape:groupmode="layer"
     id="layer1"
     transform="translate(-82.550003,-136.13333)">
    <g
       id="g871">
      <path
         inkscape:connector-curvature="0"
         id="rect851"
         d="m 87.84167,137.21529 v 31.75 H 111.125 v -25.4 l -6.35,-6.35 z"
         style="fill:#ffffff;fill-opacity:1;stroke:none;stroke-width:0.52916664;stroke-linejoin:bevel;stroke-miterlimit:4;stroke-dasharray:none;stroke-opacity:1" />
      <path
         sodipodi:nodetypes="ccccccccccc"
         inkscape:connector-curvature="0"
         id="rect840"
         transform="matrix(0.26458333,0,0,0.26458333,82.550003,136.13333)"
         d="m 20,4 v 120 h 88 V 28 l -2,-2 v 96 H 22 V 6 H 86 L 84,4 Z"
         style="fill:#96a5af;fill-opacity:1;stroke:none;stroke-width:0.99999994;stroke-linejoin:round;stroke-miterlimit:4;stroke-dasharray:none" />
      <path
         transform="matrix(0.26458333,0,0,0.26458333,82.550003,136.13333)"
         id="path863"
         d="m 82,4 v 26 h 26 V 28 L 84,4 Z m 2,3 21,21 H 84 Z"
         style="fill:#96a5af;fill-opacity:1;stroke:none;stroke-width:0.99999994px;stroke-linecap:butt;stroke-linejoin:miter;stroke-opacity:1"
         inkscape:connector-curvature="0" />
      <path
         id="rect871"
         transform="matrix(0.26458334,0,0,0.26458334,82.550003,136.13333)"
         d="m 48.099609,42 c -1.108003,0 -2,0.891989 -2,2 v 48 c 0,1.108011 0.891997,2 2,2 H 80 c 1.108003,0 2,-0.891989 2,-2 V 44 c 0,-1.108011 -0.891997,-2 -2,-2 z m 0,2 H 80 V 86 H 48.099609 Z M 51,46 a 1.0000001,1.0000001 0 0 0 -1,1 1.0000001,1.0000001 0 0 0 1,1 1.0000001,1.0000001 0 0 0 1,-1 1.0000001,1.0000001 0 0 0 -1,-1 z m 26,0 a 1.0000001,1.0000001 0 0 0 -1,1 1.0000001,1.0000001 0 0 0 1,1 1.0000001,1.0000001 0 0 0 1,-1 1.0000001,1.0000001 0 0 0 -1,-1 z m -14,9.998047 v 17.582031 l -6.289062,-6.289062 -1.417969,1.417968 8.703125,8.703125 8.710937,-8.703125 L 71.289062,67.291016 65,73.585938 V 55.998047 Z M 51,82 a 1.0000001,1.0000001 0 0 0 -1,1 1.0000001,1.0000001 0 0 0 1,1 1.0000001,1.0000001 0 0 0 1,-1 1.0000001,1.0000001 0 0 0 -1,-1 z m 26,0 a 1.0000001,1.0000001 0 0 0 -1,1 1.0000001,1.0000001 0 0 0 1,1 1.0000001,1.0000001 0 0 0 1,-1 1.0000001,1.0000001 0 0 0 -1,-1 z m -13,8 h 12 v 2 H 64 Z"
         style="opacity:1;fill:#96a5af;fill-opacity:1;fill-rule:evenodd;stroke:none;stroke-width:2;stroke-linecap:square;stroke-linejoin:bevel;stroke-miterlimit:4;stroke-dasharray:none;stroke-opacity:1"
         inkscape:connector-curvature="0" />
      <rect
         rx="8.5529211e-07"
         y="149.3625"
         x="102.12917"
         height="2.6458364"
         width="4.2333269"
         id="rect854"
         style="opacity:1;fill:#96a5af;fill-opacity:1;fill-rule:evenodd;stroke:none;stroke-width:0.5291667;stroke-linecap:square;stroke-linejoin:bevel;stroke-miterlimit:4;stroke-dasharray:none;stroke-opacity:1" />
      <rect
         rx="8.5529211e-07"
         y="149.89168"
         x="102.65833"
         height="0.5291667"
         width="2.1166668"
         id="rect856"
         style="opacity:1;fill:#ffffff;fill-opacity:1;fill-rule:evenodd;stroke:none;stroke-width:0.5291667;stroke-linecap:square;stroke-linejoin:bevel;stroke-miterlimit:4;stroke-dasharray:none;stroke-opacity:1" />
      <rect
         rx="8.5529211e-07"
         y="150.95001"
         x="102.65833"
         height="0.5291667"
         width="1.0583334"
         id="rect858"
         style="opacity:1;fill:#ffffff;fill-opacity:1;fill-rule:evenodd;stroke:none;stroke-width:0.5291667;stroke-linecap:square;stroke-linejoin:bevel;stroke-miterlimit:4;stroke-dasharray:none;stroke-opacity:1" />
      <rect
         rx="8.5529211e-07"
         y="150.95001"
         x="104.24583"
         height="0.5291667"
         width="1.0583334"
         id="rect860"
         style="opacity:1;fill:#ffffff;fill-opacity:1;fill-rule:evenodd;stroke:none;stroke-width:0.5291667;stroke-linecap:square;stroke-linejoin:bevel;stroke-miterlimit:4;stroke-dasharray:none;stroke-opacity:1" />
      <rect
         rx="8.5529211e-07"
         y="149.89168"
         x="105.30417"
         height="0.5291667"
         width="0.52916723"
         id="rect862"
         style="opacity:1;fill:#ffffff;fill-opacity:1;fill-rule:evenodd;stroke:none;stroke-width:0.5291667;stroke-linecap:square;stroke-linejoin:bevel;stroke-miterlimit:4;stroke-dasharray:none;stroke-opacity:1" />
    </g>
  </g>
</svg>

<?xml version="1.0" encoding="UTF-8" standalone="no"?>
<!-- Created with Inkscape (http://www.inkscape.org/) -->

<svg
   xmlns:dc="http://purl.org/dc/elements/1.1/"
   xmlns:cc="http://creativecommons.org/ns#"
   xmlns:rdf="http://www.w3.org/1999/02/22-rdf-syntax-ns#"
   xmlns:svg="http://www.w3.org/2000/svg"
   xmlns="http://www.w3.org/2000/svg"
   xmlns:sodipodi="http://sodipodi.sourceforge.net/DTD/sodipodi-0.dtd"
   xmlns:inkscape="http://www.inkscape.org/namespaces/inkscape"
   width="128"
   height="128"
   viewBox="0 0 33.866667 33.866667"
   version="1.1"
   id="svg2634"
   inkscape:version="0.92.4 5da689c313, 2019-01-14"
   sodipodi:docname="application-x-apple-diskimage.svg">
  <title
     id="title3250">Boston Icons</title>
  <defs
     id="defs2628">
    <clipPath
       clipPathUnits="userSpaceOnUse"
       id="clipPath5603">
      <path
         style="fill:#00ffff;fill-opacity:1;stroke:none;stroke-width:0.26458335px;stroke-linecap:butt;stroke-linejoin:miter;stroke-opacity:1"
         d="m 61.912499,165.76667 -6.879168,6.87917 6.879168,6.87916 6.879167,-6.87916 z"
         id="path5605"
         inkscape:connector-curvature="0" />
    </clipPath>
    <clipPath
       id="clp12">
      <path
         inkscape:connector-curvature="0"
         d="m 45.315,71.927 h 12.92 v 15.867 h -12.92 z"
         id="path184" />
    </clipPath>
  </defs>
  <sodipodi:namedview
     id="base"
     pagecolor="#ffffff"
     bordercolor="#00ffed"
     borderopacity="1"
     inkscape:pageopacity="1"
     inkscape:pageshadow="2"
     inkscape:zoom="11.2"
     inkscape:cx="44.896491"
     inkscape:cy="57.309847"
     inkscape:document-units="px"
     inkscape:current-layer="layer1"
     showgrid="false"
     showguides="false"
     inkscape:guide-bbox="true"
     fit-margin-top="0"
     fit-margin-left="0"
     fit-margin-right="0"
     fit-margin-bottom="0"
     inkscape:window-width="1920"
     inkscape:window-height="1016"
     inkscape:window-x="0"
     inkscape:window-y="27"
     inkscape:window-maximized="1"
     units="px">
    <inkscape:grid
       type="xygrid"
       id="grid3182"
       spacingx="0.52916667"
       spacingy="0.52916667"
       empspacing="4"
       originx="-82.550004"
       originy="-127.00001"
       dotted="false" />
    <sodipodi:guide
       position="-4.268358e-06,27.516666"
       orientation="1,0"
       id="guide3216"
       inkscape:locked="false" />
    <sodipodi:guide
       position="3.7041618,33.866666"
       orientation="0,1"
       id="guide3218"
       inkscape:locked="false" />
    <sodipodi:guide
       position="33.866657,24.870836"
       orientation="1,0"
       id="guide3220"
       inkscape:locked="false" />
    <sodipodi:guide
       position="32.279157,-4.1479283e-06"
       orientation="0,1"
       id="guide3222"
       inkscape:locked="false" />
    <sodipodi:guide
       position="15.345829,32.808336"
       orientation="0,1"
       id="guide3224"
       inkscape:locked="false" />
    <sodipodi:guide
       position="-4.7625023,1.0583259"
       orientation="0,1"
       id="guide3226"
       inkscape:locked="false" />
    <sodipodi:guide
       position="1.0583287,17.462496"
       orientation="1,0"
       id="guide3228"
       inkscape:locked="false" />
    <sodipodi:guide
       position="32.808327,20.108336"
       orientation="1,0"
       id="guide3230"
       inkscape:locked="false" />
    <sodipodi:guide
       position="15.874995,31.750006"
       orientation="0,1"
       id="guide3232"
       inkscape:locked="false" />
    <sodipodi:guide
       position="2.1166617,24.870836"
       orientation="1,0"
       id="guide3234"
       inkscape:locked="false" />
    <sodipodi:guide
       position="3.1749958,25.400006"
       orientation="1,0"
       id="guide3236"
       inkscape:locked="false" />
    <sodipodi:guide
       position="5.2916633,15.345824"
       orientation="1,0"
       id="guide3238"
       inkscape:locked="false" />
    <sodipodi:guide
       position="28.574997,25.400006"
       orientation="1,0"
       id="guide3240"
       inkscape:locked="false" />
    <sodipodi:guide
       position="30.691657,24.341666"
       orientation="1,0"
       id="guide3242"
       inkscape:locked="false" />
    <sodipodi:guide
       position="31.749997,21.695836"
       orientation="1,0"
       id="guide3244"
       inkscape:locked="false" />
    <sodipodi:guide
       position="21.695827,2.1166659"
       orientation="0,1"
       id="guide3246"
       inkscape:locked="false" />
    <sodipodi:guide
       position="16.404162,3.1749959"
       orientation="0,1"
       id="guide3248"
       inkscape:locked="false" />
    <sodipodi:guide
       position="29.63333,25.399991"
       orientation="0.70710678,0.70710678"
       id="guide850"
       inkscape:locked="false" />
    <sodipodi:guide
       position="26.987497,30.162491"
       orientation="0,1"
       id="guide843"
       inkscape:locked="false" />
    <sodipodi:guide
       position="30.162497,26.458325"
       orientation="0,1"
       id="guide845"
       inkscape:locked="false" />
    <sodipodi:guide
       position="8.9958299,20.637491"
       orientation="1,0"
       id="guide851"
       inkscape:locked="false" />
    <sodipodi:guide
       position="13.229163,23.812491"
       orientation="0,1"
       id="guide853"
       inkscape:locked="false" />
    <sodipodi:guide
       position="24.87083,14.287491"
       orientation="1,0"
       id="guide855"
       inkscape:locked="false" />
    <sodipodi:guide
       position="20.10833,7.9374908"
       orientation="0,1"
       id="guide857"
       inkscape:locked="false" />
    <sodipodi:guide
       position="10.054163,17.462491"
       orientation="1,0"
       id="guide882"
       inkscape:locked="false" />
    <sodipodi:guide
       position="12.699997,22.754158"
       orientation="0,1"
       id="guide884"
       inkscape:locked="false" />
    <sodipodi:guide
       position="23.812497,18.520824"
       orientation="1,0"
       id="guide886"
       inkscape:locked="false" />
    <sodipodi:guide
       position="16.404163,8.9958242"
       orientation="0,1"
       id="guide888"
       inkscape:locked="false" />
    <sodipodi:guide
       position="16.93333,15.874991"
       orientation="0,1"
       id="guide846"
       inkscape:locked="false" />
    <sodipodi:guide
       position="16.93333,15.874991"
       orientation="1,0"
       id="guide848"
       inkscape:locked="false" />
    <sodipodi:guide
       position="16.404163,13.758324"
       orientation="0.70710678,0.70710678"
       id="guide897"
       inkscape:locked="false" />
    <sodipodi:guide
       position="17.462497,13.758324"
       orientation="-0.70710678,0.70710678"
       id="guide899"
       inkscape:locked="false" />
  </sodipodi:namedview>
  <metadata
     id="metadata2631">
    <rdf:RDF>
      <cc:Work
         rdf:about="">
        <dc:format>image/svg+xml</dc:format>
        <dc:type
           rdf:resource="http://purl.org/dc/dcmitype/StillImage" />
        <dc:title>Boston Icons</dc:title>
        <cc:license
           rdf:resource="dribbble.com/chrisdiaz" />
        <dc:creator>
          <cc:Agent>
            <dc:title>Christian Díaz</dc:title>
          </cc:Agent>
        </dc:creator>
        <dc:date>2019</dc:date>
        <dc:publisher>
          <cc:Agent>
            <dc:title>Christian Díaz</dc:title>
          </cc:Agent>
        </dc:publisher>
        <dc:identifier>christiandiaz.design [at] gmail [dot] com</dc:identifier>
        <dc:subject>
          <rdf:Bag>
            <rdf:li>GNOME icon Theme</rdf:li>
          </rdf:Bag>
        </dc:subject>
        <dc:description>diazchris.deviantart.com | dribbble.com/chrisdiaz</dc:description>
      </cc:Work>
    </rdf:RDF>
  </metadata>
  <g
     inkscape:label="Capa 1"
     inkscape:groupmode="layer"
     id="layer1"
     transform="translate(-82.550003,-136.13333)">
    <g
       id="g871">
      <path
         inkscape:connector-curvature="0"
         id="rect851"
         d="m 87.84167,137.21529 v 31.75 H 111.125 v -25.4 l -6.35,-6.35 z"
         style="fill:#ffffff;fill-opacity:1;stroke:none;stroke-width:0.52916664;stroke-linejoin:bevel;stroke-miterlimit:4;stroke-dasharray:none;stroke-opacity:1" />
      <path
         sodipodi:nodetypes="ccccccccccc"
         inkscape:connector-curvature="0"
         id="rect840"
         transform="matrix(0.26458333,0,0,0.26458333,82.550003,136.13333)"
         d="m 20,4 v 120 h 88 V 28 l -2,-2 v 96 H 22 V 6 H 86 L 84,4 Z"
         style="fill:#a8b4bd;fill-opacity:1;stroke:none;stroke-width:0.99999994;stroke-linejoin:round;stroke-miterlimit:4;stroke-dasharray:none" />
      <path
         transform="matrix(0.26458333,0,0,0.26458333,82.550003,136.13333)"
         id="path863"
         d="M 82 4 L 82 30 L 108 30 L 108 28 L 84 4 L 82 4 z M 84 7 L 105 28 L 84 28 L 84 7 z "
         style="fill:#a8b4bd;fill-opacity:1;stroke:none;stroke-width:0.99999994px;stroke-linecap:butt;stroke-linejoin:miter;stroke-opacity:1" />
      <path
         id="rect871"
         transform="matrix(0.26458334,0,0,0.26458334,82.550003,136.13333)"
         d="M 48.099609 42 C 46.991606 42 46.099609 42.891989 46.099609 44 L 46.099609 92 C 46.099609 93.108011 46.991606 94 48.099609 94 L 80 94 C 81.108003 94 82 93.108011 82 92 L 82 44 C 82 42.891989 81.108003 42 80 42 L 48.099609 42 z M 48.099609 44 L 80 44 L 80 86 L 48.099609 86 L 48.099609 44 z M 51 46 A 1.0000001 1.0000001 0 0 0 50 47 A 1.0000001 1.0000001 0 0 0 51 48 A 1.0000001 1.0000001 0 0 0 52 47 A 1.0000001 1.0000001 0 0 0 51 46 z M 77 46 A 1.0000001 1.0000001 0 0 0 76 47 A 1.0000001 1.0000001 0 0 0 77 48 A 1.0000001 1.0000001 0 0 0 78 47 A 1.0000001 1.0000001 0 0 0 77 46 z M 63 55.998047 L 63 73.580078 L 56.710938 67.291016 L 55.292969 68.708984 L 63.996094 77.412109 L 72.707031 68.708984 L 71.289062 67.291016 L 65 73.585938 L 65 55.998047 L 63 55.998047 z M 51 82 A 1.0000001 1.0000001 0 0 0 50 83 A 1.0000001 1.0000001 0 0 0 51 84 A 1.0000001 1.0000001 0 0 0 52 83 A 1.0000001 1.0000001 0 0 0 51 82 z M 77 82 A 1.0000001 1.0000001 0 0 0 76 83 A 1.0000001 1.0000001 0 0 0 77 84 A 1.0000001 1.0000001 0 0 0 78 83 A 1.0000001 1.0000001 0 0 0 77 82 z M 64 90 L 76 90 L 76 92 L 64 92 L 64 90 z "
         style="opacity:1;fill:#a8b4bd;fill-opacity:1;fill-rule:evenodd;stroke:none;stroke-width:2;stroke-linecap:square;stroke-linejoin:bevel;stroke-miterlimit:4;stroke-dasharray:none;stroke-opacity:1" />
      <rect
         rx="8.5529211e-07"
         y="149.3625"
         x="102.12917"
         height="2.6458364"
         width="4.2333269"
         id="rect854"
         style="opacity:1;fill:#a8b4bd;fill-opacity:1;fill-rule:evenodd;stroke:none;stroke-width:0.5291667;stroke-linecap:square;stroke-linejoin:bevel;stroke-miterlimit:4;stroke-dasharray:none;stroke-opacity:1" />
      <rect
         rx="8.5529211e-07"
         y="149.89168"
         x="102.65833"
         height="0.5291667"
         width="2.1166668"
         id="rect856"
         style="opacity:1;fill:#ffffff;fill-opacity:1;fill-rule:evenodd;stroke:none;stroke-width:0.5291667;stroke-linecap:square;stroke-linejoin:bevel;stroke-miterlimit:4;stroke-dasharray:none;stroke-opacity:1" />
      <rect
         rx="8.5529211e-07"
         y="150.95001"
         x="102.65833"
         height="0.5291667"
         width="1.0583334"
         id="rect858"
         style="opacity:1;fill:#ffffff;fill-opacity:1;fill-rule:evenodd;stroke:none;stroke-width:0.5291667;stroke-linecap:square;stroke-linejoin:bevel;stroke-miterlimit:4;stroke-dasharray:none;stroke-opacity:1" />
      <rect
         rx="8.5529211e-07"
         y="150.95001"
         x="104.24583"
         height="0.5291667"
         width="1.0583334"
         id="rect860"
         style="opacity:1;fill:#ffffff;fill-opacity:1;fill-rule:evenodd;stroke:none;stroke-width:0.5291667;stroke-linecap:square;stroke-linejoin:bevel;stroke-miterlimit:4;stroke-dasharray:none;stroke-opacity:1" />
      <rect
         rx="8.5529211e-07"
         y="149.89168"
         x="105.30417"
         height="0.5291667"
         width="0.52916723"
         id="rect862"
         style="opacity:1;fill:#ffffff;fill-opacity:1;fill-rule:evenodd;stroke:none;stroke-width:0.5291667;stroke-linecap:square;stroke-linejoin:bevel;stroke-miterlimit:4;stroke-dasharray:none;stroke-opacity:1" />
    </g>
  </g>
</svg>
